!!!!SEGMENT: Ren2008-O_Domine_Jesu_Christe.krn
!!!id: Ren2008
!!!AGN: Motet
!!!voices: 4
!!!COM: Renaldo
!!!OTL: O Domine Jesu Christe
**kern	**kern	**kern	**kern
*part4	*part3	*part2	*part1
*staff4	*staff3	*staff2	*staff1
*I"Bassus	*I"Tenor	*I"Altus	*I"Superius
*I'B	*I'T	*I'A	*I'S
*clefF4	*clefGv2	*clefGv2	*clefG2
*k[b-]	*k[b-]	*k[b-]	*k[b-]
*F:	*F:	*F:	*F:
*M2/1	*M2/1	*M2/1	*M2/1
*met(C|)	*met(C|)	*met(C|)	*met(C|)
!!section: Prima Pars: O Domine Jesu Christe
!!!OMD: Prima Pars: O Domine Jesu Christe
=1	=1	=1	=1
0F	0F	0c	0f
=2	=2	=2	=2
1F	1A	1c	1f
1F	1A	1c	1f
=3	=3	=3	=3
1.C	1G	1c	1.e
.	[1c	1G	.
2D	.	.	2f
=4	=4	=4	=4
1E	2c]	1r	1g
.	2B-y	.	.
[1F	2A	[1c	[1a
.	2G	.	.
=5	=5	=5	=5
1F]	1A	1c]	2a]
.	.	.	2g
1BB-y	1B-y	1d	[1f
=6	=6	=6	=6
0C	0G	0c	1f]
.	.	.	1e
=7	=7	=7	=7
0FF;	0F;	0A;	0f;
=8	=8	=8	=8
0F	0c	0f	0a
=9	=9	=9	=9
1F	1c	1f	1a
1F	1c	1f	1a
=10	=10	=10	=10
0C	0c	0e	0g
=11	=11	=11	=11
1.F	2r	0c	1.a
.	2.A	.	.
.	4B-y	.	.
2E	[2c	.	2g
=12	=12	=12	=12
0D	2c]	1d	0f
.	4BnXi	.	.
.	4A	.	.
.	1Bni	1d	.
=13	=13	=13	=13
0C;	0c;	0G;	0e;
=14	=14	=14	=14
0C	0c	0e	0g
=15	=15	=15	=15
1C	1c	1e	1g
1C	1c	1e	1g
=16	=16	=16	=16
1F	1c	2f	1.a
.	.	2.F	.
1D	1F	.	.
.	.	4G	.
.	.	4A	4g
.	.	4B-y	4f
=17	=17	=17	=17
2C	2G	2c	2e
2D	2F	2B-y	1f
1C	1G	1c	.
.	.	.	2e
=18	=18	=18	=18
0F	0F	0A	0f
=19	=19	=19	=19
0C	0c	0e	0g
=20	=20	=20	=20
1C	1c	1e	1g
1C	1c	1e	1g
=21	=21	=21	=21
1F	1c	2f	1.a
.	.	2.F	.
1D	1F	.	.
.	.	4G	.
.	.	4A	4g
.	.	4B-y	4f
=22	=22	=22	=22
2C	2G	2c	2e
2D	2F	2B-y	1f
1C	1G	1c	.
.	.	.	2e
=23	=23	=23	=23
2r	2.F	1A	2f
1F	.	.	1a
.	4G	.	.
.	1A	2r	.
2D	.	[2d	2f
=24	=24	=24	=24
2.G	2B-y	2d]	2.b-y
.	1G	2B-y	.
4F	.	.	4a
4E	.	2.e-i	4g
4D	.	.	4f
2C	[2c	.	2g
.	.	4d	.
=25	=25	=25	=25
1F	4c]	2c	2a
.	4B-y	.	.
.	1A	1d	2f
1E	.	.	1g
.	2G	2c#i	.
=26	=26	=26	=26
1D	1A	1d	1f
2r	2r	2r	2r
2C	2c	2e	2g
=27	=27	=27	=27
2F	2c	2f	2a
2D	2d	2f	2a
2G	2B-y	2d	2b-y
2G	2B-y	2d	2b-y
=28	=28	=28	=28
2C	2c	2e	2g
2F	2c	1f	2.a
1D	1F	.	.
.	.	.	4g
.	.	2B-y	[2f
=29	=29	=29	=29
1C	1G	1c	2f]
.	.	.	2e
1F	1F	1c	1f
=30	=30	=30	=30
2r	2r	2r	2r
2F	2c	2f	2a
2F	2c	2f	2a
2D	2d	2f	2a
=31	=31	=31	=31
2G	2B-y	2d	2b-y
2G	2B-y	2d	2b-y
2C	2c	2e	2g
2F	2c	[2f	[2a
=32	=32	=32	=32
1D	1F	2f]	4a]
.	.	.	4g
.	.	2B-y	1f
1C	1G	1c	.
.	.	.	2e
=33	=33	=33	=33
1F	1F	1c	1f
2r	2r	2r	2r
[2F	[2A	[2c	[2f
=34	=34	=34	=34
2F]	2A]	2c]	2f]
2BB-y	2B-y	2d	2f
2F	2A	2c	2f
2F	2A	2c	2f
=35	=35	=35	=35
0BB-y	0B-y	0d	0f
=36	=36	=36	=36
00FF 00F>l	00Al	00cl	00fl
==	==	==	==
*-	*-	*-	*-
!!!system-decoration: [*]
!!!RDF**kern: i = editorial accidental
!!!RDF**kern: l = terminal long
!!!ENC: Benjamin Ory
!!!END: 2024/12/17
!!!EED: Benjamin Ory
!!!EEV: 2025/01/24
!!!YEC: Copyright 2025 Benjamin Ory, All Rights Reserved
!!!ONB: Translated from MusicXML on 2025/01/24